images/usecases/scada/water-1.svg

<svg width="248" height="322" fill="none" xmlns="http://www.w3.org/2000/svg"><rect x="59.25" y="120.75" width="186.5" height="186.5" rx="93.25" stroke="#B2BFD1" stroke-width="1.5"/><path fill-rule="evenodd" clip-rule="evenodd" d="M162.273 224.58c0-1.189.964-2.152 2.152-2.152h11.568a2.152 2.152 0 0 1 0 4.304h-11.568a2.153 2.153 0 0 1-2.152-2.152Z" fill="#305680"/><path d="M194.914 225.297a13.987 13.987 0 0 0-13.988-13.988v4.323a9.655 9.655 0 0 1 6.834 2.831 9.676 9.676 0 0 1 2.095 3.135 9.682 9.682 0 0 1 .735 3.699h4.324Z" fill="#305680"/><path fill-rule="evenodd" clip-rule="evenodd" d="M183.436 213.461a2.152 2.152 0 0 0-2.152-2.152h-16.23a2.151 2.151 0 1 0 0 4.304h16.23a2.153 2.153 0 0 0 2.152-2.152Zm9.325 8.787a2.153 2.153 0 0 0-2.152 2.152v31.743c0 1.188.964 2.152 2.152 2.152h3.587a2.153 2.153 0 0 0 0-4.304h-1.435V224.4a2.152 2.152 0 0 0-2.152-2.152Zm-11.477 5.47a2.151 2.151 0 0 0-2.152 2.152v26.273a2.152 2.152 0 0 0 4.304 0V229.87a2.152 2.152 0 0 0-2.152-2.152Z" fill="#305680"/><path fill-rule="evenodd" clip-rule="evenodd" d="M179.166 230.229c0-.458-.089-.911-.262-1.334l-.013-.032a3.5 3.5 0 0 0-.733-1.098l-.035-.035a3.45 3.45 0 0 0-1.082-.72 3.413 3.413 0 0 0-1.318-.265v-4.318a7.64 7.64 0 0 1 4.304 1.329c.411.28.796.6 1.149.956l.034.036a7.818 7.818 0 0 1 1.637 2.495l.013.033c.379.937.574 1.94.574 2.953h-4.268ZM172.496 207.363c1.188 0 2.152.964 2.152 2.152v19.548a2.152 2.152 0 0 1-4.304 0v-19.548c0-1.188.963-2.152 2.152-2.152ZM126.945 224.58c0-1.189.964-2.152 2.152-2.152h11.209a2.152 2.152 0 0 1 0 4.304h-11.209a2.153 2.153 0 0 1-2.152-2.152ZM121.564 213.461c0-1.189.964-2.152 2.152-2.152h16.23a2.151 2.151 0 1 1 0 4.304h-16.23a2.153 2.153 0 0 1-2.152-2.152Zm-9.325 8.787c1.188 0 2.152.964 2.152 2.152v29.591h7.173V229.87a2.152 2.152 0 0 1 4.304 0v24.121h70.48a2.152 2.152 0 0 1 0 4.304h-87.696a2.153 2.153 0 0 1 0-4.304h1.435V224.4c0-1.188.963-2.152 2.152-2.152Z" fill="#305680"/><path d="M110.086 225.297a13.987 13.987 0 0 1 13.988-13.988v4.323a9.655 9.655 0 0 0-6.834 2.831 9.676 9.676 0 0 0-2.095 3.135 9.682 9.682 0 0 0-.735 3.699h-4.324Z" fill="#305680"/><path fill-rule="evenodd" clip-rule="evenodd" d="M125.834 230.229c0-.458.089-.911.262-1.334l.013-.032a3.5 3.5 0 0 1 .733-1.098l.035-.035a3.45 3.45 0 0 1 1.082-.72 3.413 3.413 0 0 1 1.318-.265v-4.318a7.64 7.64 0 0 0-4.304 1.329c-.411.28-.796.6-1.149.956l-.034.036a7.818 7.818 0 0 0-1.637 2.495l-.013.033a7.877 7.877 0 0 0-.574 2.953h4.268ZM133.402 171.855c0-1.188.964-2.152 2.152-2.152h34.433a2.152 2.152 0 0 1 0 4.304h-34.433a2.152 2.152 0 0 1-2.152-2.152Z" fill="#305680"/><path fill-rule="evenodd" clip-rule="evenodd" d="M149.183 170.779c1.188 0 2.152.964 2.152 2.152v21.79h12.553c1.189 0 2.153.963 2.153 2.152v30.756a2.152 2.152 0 0 1-2.153 2.152h-22.955a2.152 2.152 0 0 1-2.152-2.152v-30.756c0-1.189.964-2.152 2.152-2.152h6.098v-21.79c0-1.188.963-2.152 2.152-2.152Zm7.173 0c1.189 0 2.152.964 2.152 2.152v10.581a2.151 2.151 0 1 1-4.304 0v-10.581c0-1.188.964-2.152 2.152-2.152Zm-13.271 28.246v26.452h18.651v-26.452h-18.651Z" fill="#305680"/><path d="M158.328 190.148a2.152 2.152 0 1 1-4.304 0 2.152 2.152 0 0 1 4.304 0Z" fill="#305680"/><path fill-rule="evenodd" clip-rule="evenodd" d="M133.222 207.633c1.189 0 2.152.963 2.152 2.152v19.548a2.152 2.152 0 0 1-4.304 0v-19.548c0-1.189.964-2.152 2.152-2.152ZM159.568 214.847a7.172 7.172 0 0 1-9.562 8.354 7.171 7.171 0 0 1-4.553-7.419h.001l4.287.437a2.872 2.872 0 0 0 .788 2.279 2.871 2.871 0 0 0 2.25.869 2.873 2.873 0 0 0 2.116-1.158 2.862 2.862 0 0 0 .481-2.362v-.001l4.192-.999Z" fill="#305680"/><path fill-rule="evenodd" clip-rule="evenodd" d="M152.844 200.372a2.151 2.151 0 0 1 2.254 2.044c.213 4.331.936 5.832 1.565 6.807.14.217.31.449.5.706.723.985 1.723 2.344 2.348 4.679a2.15 2.15 0 1 1-4.157 1.113c-.4-1.493-.84-2.096-1.472-2.962-.246-.338-.522-.716-.836-1.203-1.164-1.805-2.01-4.114-2.246-8.929a2.15 2.15 0 0 1 2.044-2.255Z" fill="#305680"/><path fill-rule="evenodd" clip-rule="evenodd" d="M153.055 200.372a2.152 2.152 0 0 0-2.255 2.044c-.104 2.128-.412 3.544-.778 4.554-.358.989-.802 1.677-1.307 2.341a25.74 25.74 0 0 1-.481.607c-1.022 1.267-2.318 2.874-2.791 5.901a2.152 2.152 0 0 0 4.253.664c.287-1.839.886-2.593 1.829-3.78.191-.24.396-.498.615-.786.672-.883 1.377-1.955 1.929-3.482.546-1.507.91-3.364 1.03-5.808a2.152 2.152 0 0 0-2.044-2.255Z" fill="#305680"/><path d="M0 212h42.433M144.078 24v80" stroke="#B2BFD1" stroke-width="1.5"/><path d="M41.49 212.775c-.033-14.404 2.613-28.673 7.787-41.99 5.174-13.317 12.775-25.421 22.367-35.619 9.592-10.197 20.987-18.287 33.532-23.807 12.545-5.519 25.994-8.36 39.576-8.359v1.523c-13.393-.001-26.655 2.8-39.025 8.243-12.371 5.443-23.608 13.421-33.066 23.476-9.459 10.056-16.954 21.991-22.056 35.123-5.102 13.132-7.711 27.203-7.678 41.406l-1.436.004Z" fill="#B2BFD1"/><path d="M154.854 12c0 6.255-4.771 11.25-10.566 11.25-5.794 0-10.565-4.995-10.565-11.25S138.494.75 144.288.75c5.795 0 10.566 4.995 10.566 11.25Z" fill="#F4F8FE" stroke="#B2BFD1" stroke-width="1.5"/></svg>

<svg width="248" height="322" viewBox="0 0 248 322" fill="none" xmlns="http://www.w3.org/2000/svg">
<rect x="59.25" y="120.75" width="186.5" height="186.5" rx="93.25" stroke="#B2BFD1" stroke-width="1.5"/>
<path fill-rule="evenodd" clip-rule="evenodd" d="M162.273 224.58C162.273 223.391 163.237 222.428 164.425 222.428H175.993C177.181 222.428 178.145 223.391 178.145 224.58C178.145 225.768 177.181 226.732 175.993 226.732H164.425C163.237 226.732 162.273 225.768 162.273 224.58Z" fill="#305680"/>
<path d="M194.914 225.297C194.914 223.46 194.552 221.641 193.849 219.944C193.146 218.247 192.116 216.705 190.817 215.406C189.518 214.107 187.976 213.076 186.279 212.373C184.582 211.67 182.763 211.309 180.926 211.309V215.632C182.195 215.632 183.452 215.882 184.624 216.368C185.797 216.854 186.862 217.566 187.76 218.463C188.657 219.36 189.369 220.426 189.855 221.598C190.34 222.771 190.59 224.028 190.59 225.297H194.914Z" fill="#305680"/>
<path fill-rule="evenodd" clip-rule="evenodd" d="M183.436 213.461C183.436 212.272 182.472 211.309 181.284 211.309H165.054C163.865 211.309 162.902 212.272 162.902 213.461C162.902 214.649 163.865 215.613 165.054 215.613H181.284C182.472 215.613 183.436 214.649 183.436 213.461ZM192.761 222.248C191.573 222.248 190.609 223.212 190.609 224.4V256.143C190.609 257.331 191.573 258.295 192.761 258.295H196.348C197.536 258.295 198.5 257.331 198.5 256.143C198.5 254.954 197.536 253.991 196.348 253.991H194.913V224.4C194.913 223.212 193.95 222.248 192.761 222.248ZM181.284 227.718C180.095 227.718 179.132 228.681 179.132 229.87V256.143C179.132 257.331 180.095 258.295 181.284 258.295C182.472 258.295 183.436 257.331 183.436 256.143V229.87C183.436 228.681 182.472 227.718 181.284 227.718Z" fill="#305680"/>
<path fill-rule="evenodd" clip-rule="evenodd" d="M179.166 230.229C179.166 229.771 179.077 229.318 178.904 228.895C178.9 228.885 178.895 228.874 178.891 228.863C178.718 228.453 178.469 228.08 178.158 227.765C178.146 227.753 178.134 227.742 178.123 227.73C177.926 227.537 177.709 227.369 177.474 227.229C177.335 227.146 177.19 227.073 177.041 227.01C176.623 226.835 176.175 226.745 175.723 226.745V222.427C176.735 222.427 177.738 222.629 178.674 223.021C179.031 223.171 179.376 223.347 179.705 223.548C179.814 223.615 179.921 223.684 180.027 223.756C180.438 224.036 180.823 224.356 181.176 224.712C181.187 224.724 181.199 224.736 181.21 224.748C181.563 225.109 181.879 225.503 182.154 225.924C182.426 226.34 182.658 226.781 182.847 227.243C182.852 227.254 182.856 227.265 182.86 227.276C183.239 228.213 183.434 229.216 183.434 230.229H179.166Z" fill="#305680"/>
<path fill-rule="evenodd" clip-rule="evenodd" d="M172.496 207.363C173.684 207.363 174.648 208.327 174.648 209.515V229.063C174.648 230.252 173.684 231.215 172.496 231.215C171.307 231.215 170.344 230.252 170.344 229.063V209.515C170.344 208.327 171.307 207.363 172.496 207.363Z" fill="#305680"/>
<path fill-rule="evenodd" clip-rule="evenodd" d="M126.945 224.58C126.945 223.391 127.909 222.428 129.097 222.428H140.306C141.494 222.428 142.458 223.391 142.458 224.58C142.458 225.768 141.494 226.732 140.306 226.732H129.097C127.909 226.732 126.945 225.768 126.945 224.58Z" fill="#305680"/>
<path fill-rule="evenodd" clip-rule="evenodd" d="M121.564 213.461C121.564 212.272 122.528 211.309 123.716 211.309H139.946C141.135 211.309 142.098 212.272 142.098 213.461C142.098 214.649 141.135 215.613 139.946 215.613H123.716C122.528 215.613 121.564 214.649 121.564 213.461ZM112.239 222.248C113.427 222.248 114.391 223.212 114.391 224.4V253.991H121.564V229.87C121.564 228.681 122.528 227.718 123.716 227.718C124.905 227.718 125.868 228.681 125.868 229.87V253.991H196.348C197.536 253.991 198.5 254.954 198.5 256.143C198.5 257.331 197.536 258.295 196.348 258.295H108.652C107.464 258.295 106.5 257.331 106.5 256.143C106.5 254.954 107.464 253.991 108.652 253.991H110.087V224.4C110.087 223.212 111.05 222.248 112.239 222.248Z" fill="#305680"/>
<path d="M110.086 225.297C110.086 223.46 110.448 221.641 111.151 219.944C111.854 218.247 112.884 216.705 114.183 215.406C115.482 214.107 117.024 213.076 118.721 212.373C120.418 211.67 122.237 211.309 124.074 211.309V215.632C122.805 215.632 121.548 215.882 120.376 216.368C119.203 216.854 118.138 217.566 117.24 218.463C116.343 219.36 115.631 220.426 115.145 221.598C114.66 222.771 114.41 224.028 114.41 225.297H110.086Z" fill="#305680"/>
<path fill-rule="evenodd" clip-rule="evenodd" d="M125.834 230.229C125.834 229.771 125.923 229.318 126.096 228.895C126.1 228.885 126.105 228.874 126.109 228.863C126.282 228.453 126.531 228.08 126.842 227.765C126.854 227.753 126.866 227.742 126.877 227.73C127.074 227.537 127.291 227.369 127.526 227.229C127.665 227.146 127.81 227.073 127.959 227.01C128.377 226.835 128.825 226.745 129.277 226.745V222.427C128.265 222.427 127.262 222.629 126.326 223.021C125.969 223.171 125.624 223.347 125.295 223.548C125.186 223.615 125.079 223.684 124.973 223.756C124.562 224.036 124.177 224.356 123.824 224.712C123.813 224.724 123.801 224.736 123.79 224.748C123.437 225.109 123.121 225.503 122.846 225.924C122.574 226.34 122.342 226.781 122.153 227.243C122.148 227.254 122.144 227.265 122.14 227.276C121.761 228.213 121.566 229.216 121.566 230.229H125.834Z" fill="#305680"/>
<path fill-rule="evenodd" clip-rule="evenodd" d="M133.402 171.855C133.402 170.667 134.366 169.703 135.554 169.703L169.987 169.703C171.176 169.703 172.139 170.667 172.139 171.855C172.139 173.044 171.176 174.007 169.987 174.007L135.554 174.007C134.366 174.007 133.402 173.044 133.402 171.855Z" fill="#305680"/>
<path fill-rule="evenodd" clip-rule="evenodd" d="M149.183 170.779C150.371 170.779 151.335 171.743 151.335 172.931V194.721H163.888C165.077 194.721 166.041 195.684 166.041 196.873V227.629C166.041 228.818 165.077 229.781 163.888 229.781H140.933C139.745 229.781 138.781 228.818 138.781 227.629V196.873C138.781 195.684 139.745 194.721 140.933 194.721H147.031V172.931C147.031 171.743 147.994 170.779 149.183 170.779ZM156.356 170.779C157.545 170.779 158.508 171.743 158.508 172.931V183.512C158.508 184.701 157.545 185.664 156.356 185.664C155.168 185.664 154.204 184.701 154.204 183.512V172.931C154.204 171.743 155.168 170.779 156.356 170.779ZM143.085 199.025V225.477H161.736V199.025H143.085Z" fill="#305680"/>
<path d="M158.328 190.148C158.328 191.337 157.364 192.3 156.175 192.3C154.987 192.3 154.023 191.337 154.023 190.148C154.023 188.96 154.987 187.996 156.175 187.996C157.364 187.996 158.328 188.96 158.328 190.148Z" fill="#305680"/>
<path fill-rule="evenodd" clip-rule="evenodd" d="M133.222 207.633C134.411 207.633 135.374 208.596 135.374 209.785V229.333C135.374 230.521 134.411 231.485 133.222 231.485C132.034 231.485 131.07 230.521 131.07 229.333V209.785C131.07 208.596 132.034 207.633 133.222 207.633Z" fill="#305680"/>
<path fill-rule="evenodd" clip-rule="evenodd" d="M159.568 214.847C159.81 215.862 159.827 216.918 159.619 217.94C159.519 218.432 159.368 218.909 159.17 219.367C158.955 219.861 158.685 220.331 158.363 220.767C157.744 221.607 156.949 222.301 156.034 222.802C155.118 223.303 154.105 223.598 153.064 223.667C152.023 223.736 150.979 223.577 150.006 223.201C149.032 222.825 148.153 222.242 147.428 221.491C147.052 221.101 146.722 220.671 146.444 220.209C146.187 219.782 145.974 219.328 145.811 218.854C145.47 217.868 145.348 216.82 145.453 215.782C145.453 215.782 145.454 215.782 145.454 215.782L149.741 216.219C149.741 216.219 149.741 216.219 149.741 216.219C149.699 216.634 149.748 217.052 149.884 217.446C150.02 217.839 150.24 218.198 150.529 218.498C150.819 218.798 151.17 219.031 151.558 219.181C151.947 219.331 152.364 219.394 152.779 219.367C153.195 219.339 153.599 219.222 153.965 219.022C154.33 218.822 154.647 218.544 154.895 218.209C155.142 217.874 155.313 217.489 155.396 217.081C155.479 216.673 155.472 216.252 155.376 215.847C155.376 215.847 155.376 215.846 155.376 215.846L159.568 214.847Z" fill="#305680"/>
<path fill-rule="evenodd" clip-rule="evenodd" d="M152.844 200.372C154.031 200.314 155.04 201.229 155.098 202.416C155.311 206.747 156.034 208.248 156.663 209.223C156.803 209.44 156.973 209.672 157.163 209.929C157.886 210.914 158.886 212.273 159.511 214.608C159.819 215.756 159.137 216.936 157.989 217.243C156.841 217.551 155.661 216.869 155.354 215.721C154.954 214.228 154.514 213.625 153.882 212.759C153.636 212.421 153.36 212.043 153.046 211.556C151.882 209.751 151.036 207.442 150.8 202.627C150.741 201.439 151.656 200.43 152.844 200.372Z" fill="#305680"/>
<path fill-rule="evenodd" clip-rule="evenodd" d="M153.055 200.372C151.868 200.314 150.858 201.229 150.8 202.416C150.696 204.544 150.388 205.96 150.022 206.97C149.664 207.959 149.22 208.647 148.715 209.311C148.566 209.507 148.404 209.708 148.234 209.918C147.212 211.185 145.916 212.792 145.443 215.819C145.26 216.993 146.063 218.094 147.237 218.277C148.411 218.461 149.512 217.657 149.696 216.483C149.983 214.644 150.582 213.89 151.525 212.703C151.716 212.463 151.921 212.205 152.14 211.917C152.812 211.034 153.517 209.962 154.069 208.435C154.615 206.928 154.979 205.071 155.099 202.627C155.157 201.439 154.242 200.43 153.055 200.372Z" fill="#305680"/>
<path d="M0 212H42.4334" stroke="#B2BFD1" stroke-width="1.5"/>
<line x1="144.078" y1="24" x2="144.078" y2="104" stroke="#B2BFD1" stroke-width="1.5"/>
<path d="M41.4909 212.775C41.4568 198.371 44.1026 184.102 49.2768 170.785C54.451 157.468 62.0518 145.364 71.644 135.166C81.2361 124.969 92.6311 116.879 105.176 111.359C117.721 105.84 131.17 102.999 144.752 103L144.752 104.523C131.359 104.522 118.097 107.323 105.727 112.766C93.356 118.209 82.1195 126.187 72.6608 136.242C63.2021 146.298 55.707 158.233 50.6048 171.365C45.5025 184.497 42.8935 198.568 42.9271 212.771L41.4909 212.775Z" fill="#B2BFD1"/>
<path d="M154.854 12C154.854 18.2553 150.083 23.25 144.288 23.25C138.494 23.25 133.723 18.2553 133.723 12C133.723 5.74469 138.494 0.75 144.288 0.75C150.083 0.75 154.854 5.74469 154.854 12Z" fill="#F4F8FE" stroke="#B2BFD1" stroke-width="1.5"/>
</svg>
